X: 1
T: Meg Fogarty's
M: 2/4
L: 1/8
R: polka
K: Dmaj
|:GB dB|GA BA|GB dB|AG ED|
GB dB|GA BA|GE GB|AG G2:|
|:d2 de|dB AG|e2 ed|Bd ef|
gf ge|dB AG|EG AB|AG G2:|
